Newaita/actions/scalable/flag-green.svg

<?xml version="1.0" encoding="UTF-8"?>
<svg xmlns="http://www.w3.org/2000/svg" xmlns:xlink="http://www.w3.org/1999/xlink" width="512pt" height="512pt" viewBox="0 0 512 512" version="1.1">
<g id="surface1">
<path style=" stroke:none;fill-rule:nonzero;fill:rgb(61.176473%,80.000001%,39.607844%);fill-opacity:1;" d="M 264.609375 289.777344 L 264.609375 120.429688 L 105.84375 120.429688 L 105.84375 289.777344 Z M 264.609375 289.777344 "/>
<path style=" stroke:none;fill-rule:nonzero;fill:rgb(25.882354%,25.882354%,25.882354%);fill-opacity:1;" d="M 68.796875 35.753906 C 89.257812 35.753906 105.84375 52.339844 105.84375 72.796875 C 105.84375 93.257812 89.257812 109.84375 68.796875 109.84375 C 48.339844 109.84375 31.753906 93.257812 31.753906 72.796875 C 31.753906 52.339844 48.339844 35.753906 68.796875 35.753906 Z M 68.796875 35.753906 "/>
<path style=" stroke:none;fill-rule:nonzero;fill:rgb(61.176473%,80.000001%,39.607844%);fill-opacity:1;" d="M 285.777344 205.101562 L 285.777344 374.453125 L 486.878906 374.453125 L 483.765625 371.335938 C 479.636719 375.464844 472.949219 375.46875 468.816406 371.347656 L 394.726562 297.257812 C 390.597656 293.125 390.597656 286.429688 394.726562 282.296875 L 468.816406 208.210938 C 470.722656 206.300781 473.285156 205.195312 475.984375 205.117188 C 478.894531 205.035156 481.710938 206.15625 483.765625 208.214844 L 486.878906 205.101562 Z M 285.777344 205.101562 "/>
<path style=" stroke:none;fill-rule:nonzero;fill:rgb(25.882354%,25.882354%,25.882354%);fill-opacity:1;" d="M 53.28125 132.929688 C 53.046875 134.015625 52.921875 135.144531 52.921875 136.304688 L 52.921875 475.003906 C 52.921875 483.800781 60.003906 490.878906 68.796875 490.878906 C 77.59375 490.878906 84.675781 483.800781 84.675781 475.003906 L 84.675781 136.304688 C 84.675781 135.144531 84.546875 134.015625 84.316406 132.929688 C 79.597656 135.097656 74.34375 136.304688 68.796875 136.304688 C 63.25 136.304688 57.996094 135.097656 53.28125 132.929688 Z M 53.28125 132.929688 "/>
</g>
</svg>

<svg xmlns="http://www.w3.org/2000/svg" width="512pt" height="512pt" viewBox="0 0 512 512"><path d="M264.61 289.777V120.43H105.843v169.347zm0 0" fill="#9ccc65"/><path d="M68.797 35.754c20.46 0 37.047 16.586 37.047 37.043 0 20.46-16.586 37.047-37.047 37.047-20.457 0-37.043-16.586-37.043-37.047 0-20.457 16.586-37.043 37.043-37.043zm0 0" fill="#424242"/><path d="M285.777 205.102v169.351H486.88l-3.113-3.117c-4.13 4.129-10.817 4.133-14.95.012l-74.09-74.09c-4.128-4.133-4.128-10.828 0-14.961l74.09-74.086a10.552 10.552 0 0 1 7.168-3.094 10.575 10.575 0 0 1 7.782 3.098l3.113-3.113zm0 0" fill="#9ccc65"/><path d="M53.281 132.93a15.982 15.982 0 0 0-.36 3.375v338.699a15.84 15.84 0 0 0 15.876 15.875 15.84 15.84 0 0 0 15.879-15.875v-338.7c0-1.16-.13-2.288-.36-3.374a37.067 37.067 0 0 1-15.52 3.375c-5.546 0-10.8-1.207-15.515-3.375zm0 0" fill="#424242"/></svg>
